src/img/Vector1.svg

<svg width="58.893066" height="39.730469" viewBox="0 0 58.8931 39.7305" fill="none" xmlns="http://www.w3.org/2000/svg" xmlns:xlink="http://www.w3.org/1999/xlink">
	<desc>
			Created with Pixso.
	</desc>
	<defs/>
	<path id="Vector" d="M58.1982 0.714844C53.4941 1.36426 48.2178 1.84082 42.5132 2.13281L42.8174 0.742188C42.8569 0.55957 42.8125 0.37207 42.6968 0.227539C42.5801 0.0839844 42.4058 0 42.2207 0L39.4023 0C39.0649 0 38.791 0.273438 38.791 0.611328L38.791 2.2959C32.6577 2.51367 26.2368 2.51367 20.1021 2.2959L20.1021 0.611328C20.1021 0.273438 19.8281 0 19.4907 0L16.6733 0C16.4883 0 16.314 0.0849609 16.1973 0.227539C16.0806 0.37207 16.0366 0.55957 16.0767 0.742188L16.3809 2.13281C10.6753 1.84082 5.39893 1.36426 0.695312 0.714844C0.361328 0.671875 0.0522461 0.902344 0.00585938 1.2373C-0.0405273 1.57227 0.193359 1.88086 0.52832 1.92676C5.35889 2.59375 10.7832 3.08008 16.6504 3.37207L17.0801 5.3418L10.1841 5.3418C9.84668 5.3418 9.57275 5.61523 9.57275 5.95312L9.57275 39.1182C9.57275 39.4561 9.84668 39.7305 10.1841 39.7305C10.5215 39.7305 10.7954 39.4561 10.7954 39.1182L10.7954 36.502L12.4321 36.502L12.4321 39.1182C12.4321 39.4551 12.7061 39.7295 13.0435 39.7295C13.3809 39.7295 13.6548 39.4551 13.6548 39.1182L13.6548 36.502L15.2915 36.502L15.2915 39.1182C15.2915 39.4551 15.5654 39.7295 15.9033 39.7295C16.2407 39.7295 16.5146 39.4551 16.5146 39.1182L16.5146 36.502L18.1514 36.502L18.1514 39.1182C18.1514 39.4551 18.4253 39.7295 18.7627 39.7295C19.1001 39.7295 19.374 39.4551 19.374 39.1182L19.374 36.502L21.0107 36.502L21.0107 39.1182C21.0107 39.4551 21.2847 39.7295 21.6221 39.7295C21.96 39.7295 22.2334 39.4551 22.2334 39.1182L22.2334 36.502L23.8696 36.502L23.8696 39.1182C23.8696 39.4551 24.1436 39.7295 24.481 39.7295C24.8184 39.7295 25.0923 39.4551 25.0923 39.1182L25.0923 33.2539L26.7285 33.2539L26.7285 35.8701C26.7285 36.208 27.0024 36.4814 27.3398 36.4814C27.6772 36.4814 27.9512 36.208 27.9512 35.8701L27.9512 5.95312C27.9512 5.61523 27.6772 5.3418 27.3398 5.3418L20.103 5.3418L20.103 3.51855C23.1704 3.62695 26.3062 3.68652 29.4468 3.68652C32.5884 3.68652 35.7236 3.62695 38.791 3.51855L38.791 5.44141C37.2515 5.65918 35.792 6.24316 34.479 7.18359C33.8267 6.92969 33.0542 6.99609 32.4775 7.4375L31.5483 8.15039C31.1147 8.4834 30.8369 8.96387 30.7661 9.50586C30.6943 10.0469 30.8384 10.583 31.1709 11.0166L41.769 24.8145C42.1592 25.3223 42.7505 25.6133 43.3901 25.6133C43.8442 25.6133 44.2739 25.4668 44.6333 25.1895L45.5645 24.4746C46.1587 24.0166 46.4243 23.2949 46.3369 22.5986C48.2549 21.0234 49.4907 18.8223 49.8154 16.3496C50.0615 14.4727 49.7593 12.6113 48.9692 10.9395C48.9995 10.9414 49.0278 10.9512 49.0591 10.9512C49.6587 10.9512 50.2285 10.7568 50.7056 10.3896C51.8882 9.48145 52.1118 7.78027 51.2026 6.59766C50.686 5.92578 49.9033 5.53906 49.0557 5.53906C48.4565 5.53906 47.8867 5.7334 47.4092 6.09961C46.8921 6.49805 46.5708 7.04883 46.4355 7.63965C45.1069 6.51367 43.5078 5.77051 41.7817 5.48145L42.2417 3.37109C48.1099 3.0791 53.5347 2.59277 58.3647 1.92578C58.6987 1.87988 58.9331 1.57129 58.8872 1.23633C58.8418 0.902344 58.5376 0.672852 58.1982 0.714844ZM25.0918 6.56445L26.7275 6.56445L26.7275 32.0312L25.0918 32.0312L25.0918 6.56445ZM23.8687 35.2793L10.7954 35.2793L10.7954 6.56445L23.8687 6.56445L23.8687 35.2793ZM18.3325 5.3418L17.4321 1.22266L18.8784 1.22266L18.8784 5.3418L18.3325 5.3418ZM40.0137 1.22266L41.4609 1.22266L40.5615 5.3418L40.0132 5.3418L40.0137 1.22266ZM32.1411 10.2715C32.0073 10.0986 31.9502 9.88281 31.979 9.66504C32.0073 9.44824 32.1191 9.25586 32.2935 9.12207L33.2227 8.40723C33.3687 8.2959 33.5415 8.2373 33.7227 8.2373C33.979 8.2373 34.2163 8.35352 34.374 8.55957L34.7993 9.11328L32.5674 10.8281L32.1411 10.2715ZM33.3115 11.7979L35.5435 10.083L36.2983 11.0664L34.0674 12.7803L33.3115 11.7979ZM34.8115 13.751L37.0435 12.0361L37.7705 12.9814L37.7993 13.0186L35.5674 14.7334L34.8115 13.751ZM36.312 15.7031L38.5435 13.9883L39.2983 14.9717L37.0669 16.6875L36.312 15.7031ZM37.812 17.6562L40.0425 15.9424L40.7974 16.9248L38.5679 18.6387L37.812 17.6562ZM39.313 19.6084L41.5425 17.8955L42.2974 18.8789L40.0679 20.5928L39.313 19.6084ZM41.5669 22.5439L40.812 21.5615L43.0439 19.8467L43.7979 20.8291L41.5669 22.5439ZM44.8193 23.5059L43.8882 24.2207C43.5376 24.4902 43.0054 24.418 42.7383 24.0693L42.312 23.5137L44.543 21.7979L44.9692 22.3545C44.9727 22.3574 44.9741 22.3643 44.9766 22.3691C45.2417 22.7275 45.1738 23.2334 44.8193 23.5059ZM48.1548 7.07031C48.4155 6.87012 48.728 6.76367 49.0557 6.76367C49.52 6.76367 49.9497 6.97559 50.2329 7.34473C50.73 7.99219 50.6074 8.9248 49.9604 9.42285C49.3286 9.90625 48.3667 9.77734 47.8833 9.15137L47.8809 9.14844C47.8809 9.14844 47.8794 9.14648 47.8784 9.14551C47.3862 8.49707 47.5093 7.56836 48.1548 7.07031ZM47.9673 14.1748C48.1562 13.75 48.2949 13.3379 48.4019 12.9346C48.6748 13.9844 48.748 15.0859 48.603 16.1924C48.334 18.2412 47.3569 20.083 45.8164 21.4492L44.0171 19.1074C45.8008 17.6377 47.1953 15.9053 47.9673 14.1748ZM47.207 10.4395C47.5337 11.2783 47.4194 12.3975 46.8496 13.6768C46.1602 15.2236 44.9072 16.7871 43.2744 18.1416L42.4277 17.0391L41.0132 15.1973L47.207 10.4395ZM46.4644 9.46777L40.269 14.2266L38.0063 11.2803C40.1279 9.77344 42.46 8.88672 44.3408 8.88672C44.9927 8.88672 45.8276 9.00391 46.4644 9.46777ZM37.2666 10.3184L35.4653 7.97266C36.8584 7.0498 38.4668 6.56348 40.1509 6.56348C41.6484 6.56348 43.0737 6.95703 44.3291 7.66602C42.2002 7.66895 39.6055 8.65332 37.2666 10.3184Z" fill="#FFFFFF" fill-opacity="1.000000" fill-rule="evenodd"/>
</svg>

<svg width="58.893" height="39.73" fill="none" xmlns="http://www.w3.org/2000/svg"><path d="M58.198.715c-4.704.65-9.98 1.126-15.685 1.418l.304-1.39A.613.613 0 0 0 42.221 0h-2.819a.611.611 0 0 0-.611.611v1.685c-6.133.218-12.554.218-18.689 0V.61A.611.611 0 0 0 19.491 0h-2.818a.607.607 0 0 0-.597.742l.305 1.39C10.675 1.842 5.399 1.365.695.716a.611.611 0 1 0-.167 1.212c4.83.667 10.255 1.153 16.122 1.445l.43 1.97h-6.896a.611.611 0 0 0-.611.611v33.165a.612.612 0 1 0 1.222 0v-2.616h1.637v2.616a.612.612 0 0 0 1.223 0v-2.616h1.636v2.616a.612.612 0 0 0 1.224 0v-2.616h1.636v2.616a.612.612 0 0 0 1.223 0v-2.616h1.637v2.616a.612.612 0 0 0 1.222 0v-2.616h1.637v2.616a.612.612 0 0 0 1.222 0v-5.864h1.637v2.616a.611.611 0 1 0 1.222 0V5.953a.611.611 0 0 0-.611-.611h-7.237V3.519c3.067.108 6.203.168 9.344.168 3.141 0 6.277-.06 9.344-.168V5.44a9.691 9.691 0 0 0-4.312 1.743c-.652-.254-1.425-.188-2.002.253l-.929.713a2.028 2.028 0 0 0-.782 1.356 2.028 2.028 0 0 0 .405 1.51l10.598 13.798c.39.508.982.8 1.621.8.454 0 .884-.147 1.243-.425l.931-.714c.595-.458.86-1.18.773-1.876a9.667 9.667 0 0 0 3.478-6.25 9.668 9.668 0 0 0-.846-5.41c.03.002.059.012.09.012a2.706 2.706 0 0 0-.003-5.412c-.6 0-1.17.194-1.647.56a2.68 2.68 0 0 0-.974 1.54 9.642 9.642 0 0 0-4.653-2.158l.46-2.11c5.868-.292 11.293-.778 16.123-1.445a.612.612 0 0 0-.167-1.211Zm-33.106 5.85h1.636V32.03h-1.636V6.564Zm-1.223 28.714H10.795V6.564H23.87V35.28ZM18.332 5.342l-.9-4.12h1.446v4.12h-.546Zm21.682-4.12h1.447l-.9 4.12h-.548v-4.12Zm-7.873 9.05a.81.81 0 0 1-.162-.607.813.813 0 0 1 .315-.543l.929-.715a.818.818 0 0 1 1.151.153l.425.553-2.232 1.715-.426-.556Zm1.17 1.526 2.233-1.715.754.983-2.23 1.714-.756-.982Zm1.5 1.953 2.233-1.715.727.945.028.038-2.232 1.714-.755-.982Zm1.501 1.952 2.232-1.715.754.984-2.231 1.716-.755-.985Zm1.5 1.953 2.23-1.714.755.983-2.23 1.714-.755-.983Zm1.501 1.952 2.23-1.713.754.984-2.23 1.714-.754-.985Zm2.254 2.936-.755-.983 2.232-1.714.754.982-2.231 1.715Zm3.252.962-.93.715a.836.836 0 0 1-1.15-.152l-.427-.555 2.231-1.716.426.557c.004.002.005.01.008.014a.82.82 0 0 1-.158 1.137ZM48.155 7.07c.26-.2.573-.306.9-.306.465 0 .895.212 1.178.58.497.648.374 1.58-.273 2.079-.631.483-1.593.354-2.077-.272l-.002-.003-.003-.002a1.488 1.488 0 0 1 .277-2.076Zm-.188 7.105a8.21 8.21 0 0 0 .435-1.24 8.522 8.522 0 0 1 .201 3.257 8.447 8.447 0 0 1-2.787 5.257l-1.799-2.342c1.784-1.47 3.178-3.202 3.95-4.932Zm-.76-3.736c.327.84.212 1.959-.357 3.238-.69 1.547-1.943 3.11-3.576 4.465l-.846-1.103-1.415-1.842 6.194-4.757Zm-.743-.971-6.195 4.759-2.263-2.947c2.122-1.507 4.454-2.393 6.335-2.393.652 0 1.487.117 2.123.58Zm-9.197.85-1.802-2.345a8.43 8.43 0 0 1 4.686-1.41c1.497 0 2.923.394 4.178 1.103-2.129.003-4.724.987-7.062 2.652Z" fill="#FFF" fill-rule="evenodd"/></svg>
